X:72
T:Invitation. THO2.072, The
O:London
M:2/4
L:1/8
B:Thompson's Compleat Coll. of 200 Favourite Country Dances, vol.2,1765
Z:Transcribed and edited by Fynn Titford-Mock, 2007
Z:abc's:AK/Fiddler's Companion/VMP 2009
K:D
A|D>AF>A| E/E/E Ed|D>AF>A|D>AF>d|D>AF>A|E/E/E EA|
BGAF|d/d/d d::(B/c/)|dAFD|E/E/E Ec|dAFD|
dAFD|G>BA>F|E/E/E Ed|e>gf>e|d/d/d d:|

